X:270
T:The Roscommon reel
R:Reel
O:Ireland
D:The Gathering (Matt Molloy)
D:Paddy Glackin: Ceol ar an bhFidil le Paddy Glackin.
S:Henrik Norbeck
Z:Transcription:??, chords:Mike Long
M:C|
L:1/8
K:D
"Em"EFGA BAGB|"D"AF~F2 dFAF|"Em"EFGA "G"~B3d|[1 "D"AFDE FEED:|[2 "D"AFDE FEEf|]
"Em"eB~B2 efge|"D"fa~a2 bfaf|"Em"eB~B2 "C"efge|\
"D"faaf efgf|"Em"eB~B2 "G"GBeg|"D"fa~a2 bgag|
"D"faaf "C"egfe|"D"dBAF EFGA|]"Em"~B3A B2dB|\
"D"AF~F2 dFAF|"Em"EBBA "G"~B3d|
"D"AFDE FEED|"Em"EBBA BcdB|"D"AF~F2 dFAF|\
"Em"EBBA "G"~B3d|"D"AFDE FEED|]
